X: 11052
M: C
L: 1/8
K: C
|:\
g3f e2d2 | c4 d4 | (ed)(ef) {a}g2fe | d2d>d d2z2 |\
g3f e2d2 | c4 d4 | edef e2d2 | c2c>c c2"_Fine"z2 :|
d3c B2c2 | d2z2 e2z2 | f3g agfe | d2d>d d2z2 |\
d3c B2c2 | d4 e4 | d2c2 B2A2 | G2G>G G2z2 & x4 GFED "_D.C."|]



